src/android-volume-up.svg

<?xml version="1.0" encoding="utf-8"?>
<!-- Generated by IcoMoon.io -->
<!DOCTYPE svg PUBLIC "-//W3C//DTD SVG 1.1//EN" "http://www.w3.org/Graphics/SVG/1.1/DTD/svg11.dtd">
<svg version="1.1" xmlns="http://www.w3.org/2000/svg" xmlns:xlink="http://www.w3.org/1999/xlink" width="512" height="512" viewBox="0 0 512 512">
<path fill="#000000" d="M64 192v128h85.334l106.666 111.543v-351.085l-106.666 111.542h-85.334zM352 256c0-38.399-21.333-72.407-53.333-88.863v176.636c32-15.365 53.333-49.373 53.333-87.773zM298.667 64v44.978c61.864 18.654 106.667 77.904 106.667 147.022 0 69.119-44.803 128.369-106.667 147.022v44.978c85.333-19.746 149.333-98.743 149.333-192 0-93.256-64-172.254-149.333-192z"></path>
</svg>

<?xml version="1.0" encoding="utf-8"?>
<!-- Generator: Adobe Illustrator 16.2.1, SVG Export Plug-In . SVG Version: 6.00 Build 0)  -->
<!DOCTYPE svg PUBLIC "-//W3C//DTD SVG 1.1//EN" "http://www.w3.org/Graphics/SVG/1.1/DTD/svg11.dtd">
<svg version="1.1" id="Layer_1" xmlns="http://www.w3.org/2000/svg" xmlns:xlink="http://www.w3.org/1999/xlink" x="0px" y="0px"
	 width="512px" height="512px" viewBox="0 0 512 512" enable-background="new 0 0 512 512" xml:space="preserve">
<path d="M64,192v128h85.334L256,431.543V80.458L149.334,192H64z M352,256c0-38.399-21.333-72.407-53.333-88.863v176.636
	C330.667,328.408,352,294.4,352,256z M298.667,64v44.978C360.531,127.632,405.334,186.882,405.334,256
	c0,69.119-44.803,128.369-106.667,147.022V448C384,428.254,448,349.257,448,256C448,162.744,384,83.746,298.667,64z"/>
</svg>
